X:1
T:Inquissima Giuda
T:Iniquissimo Giuda
T:Giovanni Pietro Biandra
T:Source : Madrigaletti a 1, 2 e 3 voci. Libro primo---Venezia---B.Magni (Gardano)---1626. Editor : André Vierendeels (06/03/15). 
T:Note : Original clefs : C4,F4
C:Giovanni Pietro Biandra
%%score 1 2
L:1/8
Q:1/4=80
M:4/4
K:C
V:1 treble-8 nm="Tenor" snm="T"
V:2 bass nm="BC" snm="BC"
V:1
 A4 A4 | A3 A A4 | A2 GF TG4 | A2 d4 cB | A2 B2 A/B/c/B/ A/G/^F/E/ | ^F4 E2 E2 | E4 E2 E2 | %7
w: In- i-|quis- si- mo|Giu- * * *|da O tra- di-|tor spie- ta- * * * * * * *|to che di|sce- pol non|
 F2 G2 A2 A2 | G/A/G/A/ F/G/F/G/ E/F/G/A/ B/c/d/B/ | e/f/d/e/ c/d/B/c/ A/B/A/B/ ^G2 | A8 | %11
w: men- ti'es- ser no-|ma- * * * * * * * * * * * * * * *||to,|
 z AAA dc B2 | BBee ed^cc | z d d3 ccA | _B/c/d/A/ B/F/G/D/ E/F/G/A/ B/c/d | A4 z2 B2 | ^c3 c d4- | %17
w: e co- me tan- to'ar- di-|ti Sa- cri- le- go cru- de- le|me- schiar del ba- cio'il|me- * * * * * * * * * * * * * *|le col|to- sco'a- mar|
 dccB c3 B | B2 B2 z EEE | TE2 D2 TE4 | D4 z2 dd | d2 cB c4- | ccBA B2 B2 | B2 AA AGGF | %24
w: _ del tra- di- men- to'in-|fa- me de l'in- no-|cen- ti san-|gue, piu pe-|sti- fe- ro'as- sai|_ che ge- li d'An- gue|fu quel ve- len ch'al mio Si|
 FE E2 E2 e2- | e2 dc BABc | d3 c B<c d<c | A4 z2 A2 | AGG^F F2 B2- | B2 c3 c d2 | B4 e2 ee | %31
w: gnor por- ge- sti quan-|* do ch'il se- gno'a quel- le|tur- be de- * * *|sti, ma|de l'in- de- gno'er- ror pe-|* na sof- fri-|sti, quan- do tron-|
 e/f/d/e/ c/d/B/c/ A2 A2 | z2 c4 c2- | c2 c2 c3 B | B2 B2 z2 d2 | c2 B2 A2 G2 | ^F2 E2 D3 E | %37
w: ca- * * * * * * * * sti,|ap- pe-|* so l'em- pio|fia- me e'l|var- co'a l'al- m'a|peg- gior vi- r'a-|
 E4 D4 | z2 G4 AB | c2 c2 z eed | c2 A2 cB cd | eB c^G AB cB | %42
w: pri- sti,-|e'l var- co'a|l'al- ma vi- ta a-|pri- * * * * *||
 c/d/B/c/ B/c/^G/A/ B/A/B/G/ A/B/c/d/ | B3 c B/c/B/c/ TB2 | A8 |] %45
w: ||sti.|
V:2
 A,,4 B,,2 ^C,2- | C,2 D,2 E,2 ^F,2 |"^b" G,8 | D,4 B,,2 C,2 | D,2 B,,2 C,4 | B,,4 ^G,,4 | %6
 A,,4 ^C,4 | D,4 ^C,4 | E,2 D,2 C,2 B,,2 | A,,4 F,2 E,2 | A,,8 | D,4 ^F,2 G,2- | %12
 G,2 ^G,2 A,2 A,,2 | _B,,4 ^F,,4 | G,,8 | D,8 | E,4 ^F,4 | ^G,4 A,2 D,2 | E,2 D,2 ^C,4 | D,4 A,,4 | %20
 D,4 B,,4 | E,8 | ^F,4 ^G,4 | A,4 E,4 | D,2 C,2 C,3 B,, | A,,4 G,,4 |"^6" F,,2 D,2 E,4 | A,,4 D,4 | %28
 D,8 | E,4 F,4 | E,4 A,,4 | C,4 D,4 | E,4 F,4 | C,4 D,4 | E,4 B,,4 | C,4 D,4 | D,6 G,,2 | %37
 A,,4 D,4 | B,,4 C,4 | A,,4 ^G,,4 | A,,8 | A,,8- | A,,8 | E,8 | A,,8 |] %45

